data/icons/ui/pill-symbolic.svg

<?xml version="1.0" encoding="UTF-8" standalone="no"?>
<svg
   height="16"
   width="16"
   xml:space="preserve"
   version="1.1"
   id="svg2"
   sodipodi:docname="pill-symbolic.svg"
   inkscape:version="1.3 (0e150ed6c4, 2023-07-21)"
   xmlns:inkscape="http://www.inkscape.org/namespaces/inkscape"
   xmlns:sodipodi="http://sodipodi.sourceforge.net/DTD/sodipodi-0.dtd"
   xmlns="http://www.w3.org/2000/svg"
   xmlns:svg="http://www.w3.org/2000/svg"><defs
     id="defs2" /><sodipodi:namedview
     id="namedview2"
     pagecolor="#ffffff"
     bordercolor="#000000"
     borderopacity="0.25"
     inkscape:showpageshadow="2"
     inkscape:pageopacity="0.0"
     inkscape:pagecheckerboard="0"
     inkscape:deskcolor="#d1d1d1"
     inkscape:zoom="15.379573"
     inkscape:cx="5.006641"
     inkscape:cy="20.31916"
     inkscape:window-width="1920"
     inkscape:window-height="1011"
     inkscape:window-x="0"
     inkscape:window-y="0"
     inkscape:window-maximized="1"
     inkscape:current-layer="svg2" /><path
     id="rect2"
     style="color:#000000;fill:#000000;fill-rule:evenodd;stroke-linecap:round;stroke-linejoin:round;-inkscape-stroke:none;paint-order:stroke markers fill"
     d="M 13.896099,2.1039006 C 12.317184,0.52498534 9.7108233,0.63232282 8.1039009,2.2392452 L 2.239245,8.1039009 C 0.63232286,9.710823 0.52498544,12.317184 2.1039007,13.896099 3.6828156,15.475014 6.2891773,15.367677 7.8960993,13.760755 L 13.760755,7.8960994 c 1.606923,-1.6069226 1.714259,-4.2132839 0.135344,-5.7921988 z m -1.414213,1.4142135 c 0.771657,0.7716572 0.758209,2.070218 -0.135345,2.9637718 L 10.12132,8.7071068 7.2928932,5.8786797 9.5181142,3.6534587 C 10.411668,2.7599047 11.710229,2.746457 12.481886,3.5181141 Z M 5.8786797,7.2928932 8.7071068,10.12132 6.4818857,12.346541 C 5.5883328,13.240094 4.2897713,13.253543 3.5181141,12.481886 2.746457,11.710229 2.7599056,10.411667 3.6534586,9.5181142 Z"
     sodipodi:nodetypes="sssssssssccssccsssc" /></svg>

<svg xmlns="http://www.w3.org/2000/svg" xml:space="preserve" width="16" height="16"><path d="M13.896 2.104C12.317.525 9.711.632 8.104 2.239L2.239 8.104C.632 9.71.525 12.317 2.104 13.896s4.185 1.472 5.792-.135l5.865-5.865c1.607-1.607 1.714-4.213.135-5.792m-1.414 1.414c.772.772.758 2.07-.135 2.964L10.12 8.707 7.293 5.88l2.225-2.226c.894-.893 2.192-.907 2.964-.135M5.879 7.293l2.828 2.828-2.225 2.226c-.894.893-2.192.907-2.964.135s-.758-2.07.135-2.964Z" style="color:#000;fill:#000;fill-rule:evenodd;stroke-linecap:round;stroke-linejoin:round;-inkscape-stroke:none;paint-order:stroke markers fill"/></svg>
